X: 1
T: LADY CAWDOR'S -- JIG
B: Ryan's Mammoth Collection of Fiddle Tunes
R: jig
M: 9/8
L: 1/8
Z: Contributed 20000926203554 by John Chambers John.Chambers:weema.com
K: D
 (vA2.A) (d2.d) (c2.A) | (uB2.A) Bcd E3 \
| (A2.A) (d2.d) (c2.A) |  Bcd "4"edc d3 :|
|: (vf2.d) fga (a2.f) | "0"ecA "4"ecA (A2.g) \
| (f2.d) fga (a2.f) | bge cAc d3 :|
